X:1
T:Steadfast, 67.67.66.66
T:Steadfast, 67.67.66.66
T:Neu Ordentlich Gesangbuch, 1646
T:Public Domain Courtesy of the Cyber Hymnal™
C:Neu Ordentlich Gesangbuch, 1646
Z:Public Domain
Z:Courtesy of the Cyber Hymnal™
%%score ( 1 2 ) ( 3 4 )
L:1/8
Q:1/4=115
M:4/4
K:C
V:1 treble 
V:2 treble 
V:3 bass 
V:4 bass 
V:1
 [CE]2 | [EA]2 [E^G]2 [EA]2 [EB]2 | [Ec]6 [Ac]2 | [Bd]2 [Ac]2 [EB]2 A2 | [E^G]2 [B,E]4 [CE]2 | %5
 [EA]2 [E^G]2 [EA]2 [EB]2 | [Ec]6 [Ec]2 | [Ed]2 [Ec]2 [EB]2 A2 | [E^G]2 [B,E]4 [DE]2 | %9
 [CE]2 [B,D]2 [CE]2 [C^F]2 | [DG]6 [CE]2 | [B,F]2 [CE]2 [CD]2 [B,D]2 | [G,C]6 E2 | %13
 [EA]2 [E^G]2 [DA]2 [DB]2 | [Cc]6 [E^c]2 | [Dd]2 [Ac]2 [AB]2 [^GB]2 | [EA]6 |] %17
V:2
 x2 | x8 | x8 | x6 (ED) | x8 | x8 | x8 | x6 (ED) | x8 | x8 | x8 | x8 | x6 (CD) | x8 | x8 | x8 | %16
 x6 |] %17
V:3
 [A,,A,]2 | [A,C]2 B,2 [C,C]2 [G,,B,]2 | [A,,A,]6 [A,E]2 | [^G,E]2 [A,E]2 [=G,B,]2 (CA,) | %4
 [E,B,]2 [E,^G,]4 [A,,A,]2 | [A,C]2 B,2 [C,C]2 [^G,,B,]2 | [A,,A,]6 [A,C]2 | %7
 [^G,B,]2 A,2 [=G,B,]2 (CA,) | [E,B,]2 [E,^G,]4 [^G,,B,]2 | [A,,A,]2 [D,F,]2 A,2 [A,,A,]2 | %10
 [G,,B,]6 [C,G,]2 | [D,F,]2 [E,G,]2 [F,A,]2 G,[G,,F,] | [C,E,]6 A,2 | %13
 A,2 [E,B,]2 [^F,A,]2 [^G,E]2 | [A,E]6 [G,A,]2 | [F,A,]2 [E,E]2 [D,F]2 (B,D) | (D2 ^C4) |] %17
V:4
 x2 | x2 (E,D,) x4 | x8 | x6 F,2 | x8 | x2 (E,D,) x4 | x8 | x2 A,2 F,2 x2 | x8 | x4 (C,B,,) x2 | %10
 x8 | x6 G, x | x6 (A,,B,,) | (C,D,) x6 | x8 | x6 E,2 | [A,,E,]6 |] %17

